X:1
T: Miss Sophia Campbell (of Saddell's) Reel
C:R. Mackintosh
R:Jig
Q: 180
K:Gm
M:6/8
L:1/8
B1/2c1/2|d3 g^fg|dBG Bcd|c3 f=ef|cAF ABc|
d3 b3|ag^f g=fe|dcB AG^F|G3 G2:|
|:B1/2c1/2|d3 dBG|dBG Bcd|c3 cAF|cAF ABc|
|1d3 dBG|dBG gfe|dcB AG^F|GGG G2:|
|2d3 bag|ag^f g=fe|dcB AG^F|G3 G2||
